src/assets/logos/nodejs.svg

<svg width="91" height="100" viewBox="0 0 91 100" fill="none" xmlns="http://www.w3.org/2000/svg">
<path d="M41.2785 1.06735C43.758 -0.351924 46.9876 -0.358335 49.465 1.06735C61.9286 8.10993 74.3961 15.1415 86.8576 22.1883C89.2014 23.5086 90.7692 26.117 90.7454 28.8178V71.1886C90.7628 74.0012 89.0401 76.672 86.5673 77.9623C74.1447 84.9661 61.7285 91.9784 49.308 98.9821C46.7772 100.429 43.4827 100.318 41.031 98.7521C37.3067 96.5931 33.576 94.4447 29.8513 92.2879C29.0902 91.8341 28.2322 91.473 27.6948 90.735C28.1699 90.0947 29.0193 90.0149 29.7096 89.7353C31.2642 89.241 32.692 88.4475 34.1202 87.6775C34.4813 87.4303 34.9222 87.525 35.2684 87.7462C38.4531 89.5722 41.6097 91.4513 44.8051 93.2598C45.4868 93.6534 46.177 93.1309 46.7597 92.8061C58.9501 85.9163 71.1555 79.0525 83.3438 72.1606C83.7954 71.9433 84.0451 71.4639 84.0084 70.9692C84.0169 56.992 84.0105 43.0123 84.0127 29.035C84.0643 28.4737 83.7395 27.9576 83.232 27.7279C70.8524 20.7562 58.4793 13.7738 46.1019 6.80035C45.8874 6.65292 45.6334 6.57382 45.3732 6.57344C45.1129 6.57306 44.8587 6.65141 44.6438 6.79821C32.2664 13.7738 19.8954 20.7626 7.51799 27.734C7.01226 27.9641 6.67284 28.4716 6.73303 29.035C6.73517 43.0123 6.73303 56.992 6.73303 70.9714C6.71157 71.2127 6.76458 71.4549 6.88493 71.6652C7.00528 71.8756 7.18719 72.044 7.40616 72.1478C10.7091 74.0208 14.0164 75.8806 17.3215 77.7472C19.1834 78.7494 21.4696 79.3449 23.521 78.577C25.3314 77.9278 26.6003 76.0804 26.5658 74.1582C26.5829 60.2626 26.5573 46.3647 26.5786 32.4712C26.5334 31.8543 27.1185 31.3447 27.7183 31.4027C29.3053 31.392 30.8945 31.3814 32.4815 31.407C33.144 31.392 33.5998 32.0563 33.5179 32.6778C33.5115 46.6614 33.535 60.6454 33.5072 74.6291C33.5115 78.3559 31.9804 82.411 28.5332 84.2345C24.2864 86.4345 19.0374 85.9679 14.8419 83.8584C11.2099 82.0456 7.7438 79.9062 4.17621 77.9641C1.69702 76.6809 -0.017145 73.9994 0.000306541 71.189V28.8178C-0.0256927 26.0611 1.60442 23.4053 4.02128 22.1043C16.4418 15.0948 28.8601 8.08001 41.2785 1.06735Z" fill="#8CC84B"/>
<path d="M52.1141 30.4179C57.5312 30.0692 63.3304 30.2113 68.2051 32.88C71.9793 34.925 74.0717 39.217 74.1383 43.41C74.0329 43.9756 73.4416 44.2876 72.9017 44.2488C71.33 44.2466 69.7579 44.2701 68.1862 44.2381C67.5195 44.2637 67.132 43.649 67.0483 43.0596C66.5967 41.0534 65.5026 39.0664 63.6143 38.0987C60.7156 36.6474 57.3545 36.7204 54.1937 36.7507C51.8862 36.8732 49.4048 37.073 47.4499 38.4299C45.9491 39.4578 45.4932 41.5327 46.0289 43.2038C46.5339 44.4037 47.919 44.7908 49.0522 45.1477C55.5805 46.8551 62.4985 46.6852 68.9021 48.9322C71.5533 49.8482 74.1468 51.629 75.0543 54.4048C76.2414 58.1252 75.721 62.5721 73.0741 65.5589C70.9276 68.0167 67.8012 69.3544 64.6831 70.0809C60.535 71.0059 56.2302 71.0294 52.0176 70.6187C48.0564 70.1671 43.9343 69.1264 40.8764 66.4275C38.2615 64.157 36.9843 60.6194 37.1111 57.2049C37.1414 56.6283 37.7155 56.2262 38.2679 56.2736C39.8507 56.2608 41.4334 56.2565 43.0162 56.2757C43.6483 56.2305 44.117 56.7768 44.1494 57.3727C44.4415 59.2841 45.1598 61.2903 46.8266 62.4236C50.0434 64.4989 54.0797 64.3568 57.7631 64.4149C60.8146 64.2795 64.2401 64.2386 66.7303 62.2217C68.0441 61.0713 68.4334 59.1467 68.0783 57.4909C67.6937 56.093 66.2313 55.4416 64.9755 55.0156C58.5309 52.977 51.5357 53.7167 45.1534 51.4114C42.5624 50.4957 40.0569 48.7644 39.0614 46.1025C37.6724 42.3352 38.3089 37.6752 41.2333 34.7893C44.0846 31.9187 48.2007 30.8132 52.1141 30.4175V30.4179Z" fill="#8CC84B"/>
</svg>

<svg width="91" height="100" fill="none" xmlns="http://www.w3.org/2000/svg"><path d="M41.279 1.067c2.479-1.419 5.709-1.425 8.186 0C61.929 8.11 74.396 15.142 86.858 22.188c2.343 1.32 3.911 3.929 3.887 6.63v42.37c.018 2.813-1.705 5.484-4.178 6.774-12.422 7.004-24.838 14.016-37.259 21.02-2.53 1.447-5.825 1.336-8.277-.23-3.724-2.159-7.455-4.307-11.18-6.464-.76-.454-1.619-.815-2.156-1.553.475-.64 1.324-.72 2.015-1 1.554-.494 2.982-1.287 4.41-2.058.361-.247.802-.152 1.148.07 3.185 1.825 6.342 3.704 9.537 5.513.682.393 1.372-.13 1.955-.454 12.19-6.89 24.396-13.754 36.584-20.645a1.21 1.21 0 0 0 .664-1.192c.009-13.977.002-27.957.005-41.934a1.31 1.31 0 0 0-.781-1.307C70.852 20.756 58.479 13.774 46.102 6.8a1.29 1.29 0 0 0-1.458-.002C32.266 13.774 19.895 20.763 7.518 27.734c-.506.23-.845.738-.785 1.301.002 13.977 0 27.957 0 41.936a1.186 1.186 0 0 0 .673 1.177c3.303 1.873 6.61 3.733 9.916 5.6 1.861 1.001 4.148 1.597 6.199.829 1.81-.65 3.08-2.497 3.045-4.419.017-13.895-.009-27.793.013-41.687-.046-.617.54-1.126 1.14-1.068 1.586-.011 3.175-.022 4.762.004.663-.015 1.119.65 1.037 1.27-.007 13.984.017 27.968-.01 41.952.003 3.727-1.528 7.782-4.975 9.605-4.247 2.2-9.496 1.734-13.691-.376-3.632-1.812-7.098-3.952-10.666-5.894C1.697 76.681-.017 74 0 71.19V28.818c-.026-2.757 1.604-5.413 4.021-6.714 12.42-7.01 24.84-14.024 37.258-21.037z" fill="#8CC84B"/><path d="M52.114 30.418c5.417-.349 11.216-.207 16.091 2.462 3.774 2.045 5.867 6.337 5.933 10.53-.105.566-.696.878-1.236.839-1.572-.002-3.144.021-4.716-.01-.667.025-1.054-.59-1.138-1.18-.451-2.006-1.545-3.993-3.434-4.96-2.898-1.452-6.26-1.379-9.42-1.348-2.308.122-4.79.322-6.744 1.679-1.5 1.028-1.957 3.103-1.421 4.774.505 1.2 1.89 1.587 3.023 1.944 6.529 1.707 13.447 1.537 19.85 3.784 2.651.916 5.245 2.697 6.152 5.473 1.187 3.72.667 8.167-1.98 11.154-2.146 2.458-5.273 3.795-8.39 4.522-4.149.925-8.454.948-12.666.538-3.962-.452-8.084-1.493-11.142-4.192-2.614-2.27-3.892-5.808-3.765-9.222.03-.577.605-.979 1.157-.931 1.583-.013 3.165-.017 4.748.002.632-.046 1.101.5 1.133 1.097.292 1.911 1.01 3.917 2.678 5.05 3.216 2.076 7.253 1.934 10.936 1.992 3.052-.136 6.477-.176 8.967-2.193 1.314-1.15 1.703-3.075 1.348-4.731-.384-1.398-1.847-2.05-3.103-2.475-6.444-2.039-13.44-1.3-19.822-3.605-2.59-.915-5.096-2.647-6.092-5.309-1.389-3.767-.752-8.427 2.172-11.313 2.852-2.87 6.968-3.976 10.881-4.372z" fill="#8CC84B"/></svg>
